assets/img/uploads/dummy-card.svg

<svg fill="none" height="241" viewBox="0 0 255 241" width="255" xmlns="http://www.w3.org/2000/svg" xmlns:xlink="http://www.w3.org/1999/xlink"><filter id="a" color-interpolation-filters="sRGB" filterUnits="userSpaceOnUse" height="255" width="255" x="0" y="-7"><feFlood flood-opacity="0" result="BackgroundImageFix"/><feColorMatrix in="SourceAlpha" type="matrix" values="0 0 0 0 0 0 0 0 0 0 0 0 0 0 0 0 0 0 127 0"/><feOffset dy="4"/><feGaussianBlur stdDeviation="6"/><feColorMatrix type="matrix" values="0 0 0 0 0 0 0 0 0 0 0 0 0 0 0 0 0 0 0.15 0"/><feBlend in2="BackgroundImageFix" mode="normal" result="effect1_dropShadow"/><feBlend in="SourceGraphic" in2="effect1_dropShadow" mode="normal" result="shape"/></filter><clipPath id="b"><path d="m12 1h231v231h-231z"/></clipPath><g clip-path="url(#b)" filter="url(#a)"><path d="m214.432 72.6899-139.5284-62.6723c-6.0177-2.70435-13.0912-.0158-15.7955 6.0019l-25.4538 56.6704z" fill="#999"/><path d="m23.9484 72.6899h207.1036c6.599 0 11.948 5.3486 11.948 11.9484v127.4487c0 6.599-5.349 11.948-11.948 11.948h-207.1036c-6.5998 0-11.9484-5.349-11.9484-11.948v-127.4487c0-6.5993 5.3486-11.9484 11.9484-11.9484z" fill="#ccc"/><path d="m231.052 72.6899h-111.092c4.385 41.5481 41.616 71.6741 83.165 67.2891 14.624-1.542 28.48-7.317 39.875-16.609v-38.7317c0-6.5993-5.349-11.9484-11.948-11.9484z" fill="#29abe2"/><path d="m31.9136 92.6037h47.7931v31.8623h-47.7931z" fill="#fbb03b"/><path d="m59.793 92.6037h7.9654v31.8623h-7.9654z" fill="#f15a24"/><g fill="#808080"><path d="m31.9136 152.345h7.9654v7.966h-7.9654z"/><path d="m47.8442 152.345h7.9655v7.966h-7.9655z"/><path d="m63.7759 152.345h7.9654v7.966h-7.9654z"/><path d="m79.7065 152.345h7.9655v7.966h-7.9655z"/><path d="m95.6372 152.345h7.9658v7.966h-7.9658z"/><path d="m111.569 152.345h7.965v7.966h-7.965z"/><path d="m127.5 152.345h7.965v7.966h-7.965z"/><path d="m143.431 152.345h7.965v7.966h-7.965z"/></g><path d="m179.276 204.121c8.798 0 15.931-7.133 15.931-15.931 0-8.799-7.133-15.931-15.931-15.931s-15.931 7.132-15.931 15.931c0 8.798 7.133 15.931 15.931 15.931z" fill="#da4836"/><path d="m203.172 172.259c-4.592.012-8.953 2.015-11.948 5.496 5.309 5.943 5.309 14.928 0 20.87 5.779 6.616 15.823 7.292 22.439 1.513 6.615-5.779 7.292-15.823 1.513-22.439-3.027-3.464-7.404-5.448-12.004-5.44z" fill="#f7931e"/><path d="m175.293 184.207h7.965v7.966h-7.965z" fill="#c1272d"/><path d="m31.9136 184.207h7.9654v7.966h-7.9654z" fill="#808080"/><path d="m47.8442 184.207h35.8447v7.966h-35.8447z" fill="#808080"/><path d="m31.9136 200.138h51.776v7.966h-51.776z" fill="#808080"/><path d="m99.6206 184.207h7.9654v7.966h-7.9654z" fill="#808080"/><path d="m115.551 184.207h35.845v7.966h-35.845z" fill="#808080"/><path d="m99.6206 200.138h51.7764v7.966h-51.7764z" fill="#808080"/><path d="m47.8445 112.517h-15.9309v-7.965h11.9484v-11.9483h7.9654v15.9313c0 2.199-1.7844 3.982-3.9829 3.982z" fill="#f15a24"/><path d="m243 118.257-2.517 2.051c-7.288 5.914-15.668 10.331-24.665 13.008 5.01-6.213 8.905-13.251 11.502-20.799h15.68v-7.965h-13.143c2.78-10.1879 4.433-20.6546 4.927-31.2048-1.199-.4182-2.461-.6411-3.732-.6574h-4.193c-.486 10.7975-2.271 21.4948-5.325 31.8622h-22.343v-31.8622h-7.966v31.8622h-22.343c-3.055-10.367-4.843-21.0647-5.329-31.8622h-7.985v.199c.481 10.7059 2.154 21.3278 4.99 31.6632h-24.992c-6.368-9.535-10.347-20.4638-11.602-31.8626h-8.014l.044.3984c4.038 39.0472 36.02 69.2722 75.23 71.1042v.187h7.966v-.171c15.851-.809 31.105-6.321 43.81-15.835zm-101.269-5.74h21.359c2.617 7.6 6.548 14.681 11.614 20.918-12.721-3.776-24.139-11.016-32.973-20.918zm49.493 23.24c-7.611-2.242-14.521-10.753-19.559-23.24h19.559zm7.966 0v-23.24h19.559c-5.038 12.487-11.944 20.998-19.559 23.24z" fill="#0071bc"/><path d="m156.108 72.6899-101.8945-45.7696-8.1608 18.1651 61.4543 27.6045z" fill="#f7931e"/></g></svg>

<svg width="255" height="241" viewBox="0 0 255 241" fill="none" xmlns="http://www.w3.org/2000/svg">
<g clip-path="url(#clip0)" filter="url(#filter0_d)">
<path d="M214.432 72.6899L74.9036 10.0176C68.8859 7.31325 61.8124 10.0018 59.1081 16.0195L33.6543 72.6899H214.432Z" fill="#999999"/>
<path d="M23.9484 72.6899H231.052C237.651 72.6899 243 78.0385 243 84.6383V212.087C243 218.686 237.651 224.035 231.052 224.035H23.9484C17.3486 224.035 12 218.686 12 212.087V84.6383C12 78.039 17.3486 72.6899 23.9484 72.6899Z" fill="#CCCCCC"/>
<path d="M231.052 72.6899H119.96C124.345 114.238 161.576 144.364 203.125 139.979C217.749 138.437 231.605 132.662 243 123.37V84.6383C243 78.039 237.651 72.6899 231.052 72.6899Z" fill="#29ABE2"/>
<path d="M31.9136 92.6037H79.7067V124.466H31.9136V92.6037Z" fill="#FBB03B"/>
<path d="M59.793 92.6037H67.7584V124.466H59.793V92.6037Z" fill="#F15A24"/>
<path d="M31.9136 152.345H39.879V160.311H31.9136V152.345Z" fill="#808080"/>
<path d="M47.8442 152.345H55.8097V160.311H47.8442V152.345Z" fill="#808080"/>
<path d="M63.7759 152.345H71.7413V160.311H63.7759V152.345Z" fill="#808080"/>
<path d="M79.7065 152.345H87.672V160.311H79.7065V152.345Z" fill="#808080"/>
<path d="M95.6372 152.345H103.603V160.311H95.6372V152.345Z" fill="#808080"/>
<path d="M111.569 152.345H119.534V160.311H111.569V152.345Z" fill="#808080"/>
<path d="M127.5 152.345H135.465V160.311H127.5V152.345Z" fill="#808080"/>
<path d="M143.431 152.345H151.396V160.311H143.431V152.345Z" fill="#808080"/>
<path d="M179.276 204.121C188.074 204.121 195.207 196.988 195.207 188.19C195.207 179.391 188.074 172.259 179.276 172.259C170.478 172.259 163.345 179.391 163.345 188.19C163.345 196.988 170.478 204.121 179.276 204.121Z" fill="#DA4836"/>
<path d="M203.172 172.259C198.58 172.271 194.219 174.274 191.224 177.755C196.533 183.698 196.533 192.683 191.224 198.625C197.003 205.241 207.047 205.917 213.663 200.138C220.278 194.359 220.955 184.315 215.176 177.699C212.149 174.235 207.772 172.251 203.172 172.259Z" fill="#F7931E"/>
<path d="M175.293 184.207H183.258V192.173H175.293V184.207Z" fill="#C1272D"/>
<path d="M31.9136 184.207H39.879V192.173H31.9136V184.207Z" fill="#808080"/>
<path d="M47.8442 184.207H83.6889V192.173H47.8442V184.207Z" fill="#808080"/>
<path d="M31.9136 200.138H83.6896V208.104H31.9136V200.138Z" fill="#808080"/>
<path d="M99.6206 184.207H107.586V192.173H99.6206V184.207Z" fill="#808080"/>
<path d="M115.551 184.207H151.396V192.173H115.551V184.207Z" fill="#808080"/>
<path d="M99.6206 200.138H151.397V208.104H99.6206V200.138Z" fill="#808080"/>
<path d="M47.8445 112.517H31.9136V104.552H43.862V92.6037H51.8274V108.535C51.8274 110.734 50.043 112.517 47.8445 112.517Z" fill="#F15A24"/>
<path d="M243 118.257L240.483 120.308C233.195 126.222 224.815 130.639 215.818 133.316C220.828 127.103 224.723 120.065 227.32 112.517H243V104.552H229.857C232.637 94.3641 234.29 83.8974 234.784 73.3472C233.585 72.929 232.323 72.7061 231.052 72.6898H226.859C226.373 83.4873 224.588 94.1846 221.534 104.552H199.191V72.6898H191.225V104.552H168.882C165.827 94.185 164.039 83.4873 163.553 72.6898H155.568V72.8888C156.049 83.5947 157.722 94.2166 160.558 104.552H135.566C129.198 95.017 125.219 84.0882 123.964 72.6894H115.95L115.994 73.0878C120.032 112.135 152.014 142.36 191.224 144.192V144.379H199.19V144.208C215.041 143.399 230.295 137.887 243 128.373V118.257H243ZM141.731 112.517H163.09C165.707 120.117 169.638 127.198 174.704 133.435C161.983 129.659 150.565 122.419 141.731 112.517ZM191.224 135.757C183.613 133.515 176.703 125.004 171.665 112.517H191.224V135.757ZM199.19 135.757V112.517H218.749C213.711 125.004 206.805 133.515 199.19 135.757Z" fill="#0071BC"/>
<path d="M156.108 72.6899L54.2135 26.9203L46.0527 45.0854L107.507 72.6899H156.108Z" fill="#F7931E"/>
</g>
<defs>
<filter id="filter0_d" x="0" y="-7" width="255" height="255" filterUnits="userSpaceOnUse" color-interpolation-filters="sRGB">
<feFlood flood-opacity="0" result="BackgroundImageFix"/>
<feColorMatrix in="SourceAlpha" type="matrix" values="0 0 0 0 0 0 0 0 0 0 0 0 0 0 0 0 0 0 127 0"/>
<feOffset dy="4"/>
<feGaussianBlur stdDeviation="6"/>
<feColorMatrix type="matrix" values="0 0 0 0 0 0 0 0 0 0 0 0 0 0 0 0 0 0 0.15 0"/>
<feBlend mode="normal" in2="BackgroundImageFix" result="effect1_dropShadow"/>
<feBlend mode="normal" in="SourceGraphic" in2="effect1_dropShadow" result="shape"/>
</filter>
<clipPath id="clip0">
<rect width="231" height="231" fill="white" transform="translate(12 1)"/>
</clipPath>
</defs>
</svg>
